images/438981.svg

<?xml version="1.0" encoding="UTF-8"?>
<svg xmlns="http://www.w3.org/2000/svg" xmlns:xlink="http://www.w3.org/1999/xlink" width="300pt" height="300pt" viewBox="0 0 300 300" version="1.1">
<defs>
<g>
<symbol overflow="visible" id="glyph0-0">
<path style="stroke:none;" d="M 0.796875 2.828125 L 0.796875 -11.28125 L 8.796875 -11.28125 L 8.796875 2.828125 Z M 1.703125 1.9375 L 7.90625 1.9375 L 7.90625 -10.390625 L 1.703125 -10.390625 Z M 1.703125 1.9375 "/>
</symbol>
<symbol overflow="visible" id="glyph0-1">
<path style="stroke:none;" d="M 1.578125 -11.671875 L 3.703125 -11.671875 L 8.875 -1.90625 L 8.875 -11.671875 L 10.40625 -11.671875 L 10.40625 0 L 8.28125 0 L 3.109375 -9.765625 L 3.109375 0 L 1.578125 0 Z M 1.578125 -11.671875 "/>
</symbol>
<symbol overflow="visible" id="glyph0-2">
<path style="stroke:none;" d="M 1.578125 -11.671875 L 3.15625 -11.671875 L 3.15625 -6.890625 L 8.890625 -6.890625 L 8.890625 -11.671875 L 10.46875 -11.671875 L 10.46875 0 L 8.890625 0 L 8.890625 -5.5625 L 3.15625 -5.5625 L 3.15625 0 L 1.578125 0 Z M 1.578125 -11.671875 "/>
</symbol>
<symbol overflow="visible" id="glyph1-0">
<path style="stroke:none;" d="M 0.640625 2.296875 L 0.640625 -9.171875 L 7.140625 -9.171875 L 7.140625 2.296875 Z M 1.375 1.578125 L 6.421875 1.578125 L 6.421875 -8.4375 L 1.375 -8.4375 Z M 1.375 1.578125 "/>
</symbol>
<symbol overflow="visible" id="glyph1-1">
<path style="stroke:none;" d="M 2.5 -1.078125 L 6.96875 -1.078125 L 6.96875 0 L 0.953125 0 L 0.953125 -1.078125 C 1.441406 -1.578125 2.101562 -2.25 2.9375 -3.09375 C 3.78125 -3.945312 4.3125 -4.5 4.53125 -4.75 C 4.9375 -5.207031 5.21875 -5.597656 5.375 -5.921875 C 5.539062 -6.242188 5.625 -6.554688 5.625 -6.859375 C 5.625 -7.367188 5.445312 -7.78125 5.09375 -8.09375 C 4.75 -8.40625 4.289062 -8.5625 3.71875 -8.5625 C 3.3125 -8.5625 2.882812 -8.492188 2.4375 -8.359375 C 2 -8.222656 1.523438 -8.007812 1.015625 -7.71875 L 1.015625 -9.015625 C 1.535156 -9.222656 2.019531 -9.378906 2.46875 -9.484375 C 2.914062 -9.597656 3.320312 -9.65625 3.6875 -9.65625 C 4.675781 -9.65625 5.460938 -9.40625 6.046875 -8.90625 C 6.628906 -8.414062 6.921875 -7.757812 6.921875 -6.9375 C 6.921875 -6.550781 6.847656 -6.179688 6.703125 -5.828125 C 6.554688 -5.484375 6.289062 -5.078125 5.90625 -4.609375 C 5.800781 -4.484375 5.460938 -4.125 4.890625 -3.53125 C 4.328125 -2.945312 3.53125 -2.128906 2.5 -1.078125 Z M 2.5 -1.078125 "/>
</symbol>
</g>
</defs>
<g id="surface44905">
<rect x="0" y="0" width="300" height="300" style="fill:rgb(100%,100%,100%);fill-opacity:1;stroke:none;"/>
<path style="fill:none;stroke-width:1.2;stroke-linecap:butt;stroke-linejoin:miter;stroke:rgb(0%,0%,0%);stroke-opacity:1;stroke-miterlimit:10;" d="M 241.34375 172.785156 L 206.085938 187.617188 "/>
<path style="fill:none;stroke-width:1.2;stroke-linecap:butt;stroke-linejoin:miter;stroke:rgb(0%,0%,0%);stroke-opacity:1;stroke-miterlimit:10;" d="M 234.328125 165.972656 L 206.121094 177.839844 "/>
<path style="fill:none;stroke-width:1.2;stroke-linecap:butt;stroke-linejoin:miter;stroke:rgb(0%,0%,0%);stroke-opacity:1;stroke-miterlimit:10;" d="M 246.125 134.835938 L 241.34375 172.785156 "/>
<path style="fill:none;stroke-width:1.2;stroke-linecap:butt;stroke-linejoin:miter;stroke:rgb(0%,0%,0%);stroke-opacity:1;stroke-miterlimit:10;" d="M 206.085938 187.617188 L 175.613281 164.5 "/>
<path style="fill:none;stroke-width:1.2;stroke-linecap:butt;stroke-linejoin:miter;stroke:rgb(0%,0%,0%);stroke-opacity:1;stroke-miterlimit:10;" d="M 175.613281 164.5 L 157.984375 171.917969 "/>
<path style="fill:none;stroke-width:1.2;stroke-linecap:butt;stroke-linejoin:miter;stroke:rgb(0%,0%,100%);stroke-opacity:1;stroke-miterlimit:10;" d="M 157.984375 171.917969 L 140.355469 179.335938 "/>
<path style="fill:none;stroke-width:1.2;stroke-linecap:butt;stroke-linejoin:miter;stroke:rgb(0%,0%,0%);stroke-opacity:1;stroke-miterlimit:10;" d="M 168.597656 157.6875 L 154.492188 163.621094 "/>
<path style="fill:none;stroke-width:1.2;stroke-linecap:butt;stroke-linejoin:miter;stroke:rgb(0%,0%,100%);stroke-opacity:1;stroke-miterlimit:10;" d="M 154.492188 163.621094 L 140.390625 169.554688 "/>
<path style="fill:none;stroke-width:1.2;stroke-linecap:butt;stroke-linejoin:miter;stroke:rgb(0%,0%,0%);stroke-opacity:1;stroke-miterlimit:10;" d="M 180.394531 126.550781 L 175.613281 164.5 "/>
<path style="fill:none;stroke-width:1.2;stroke-linecap:butt;stroke-linejoin:miter;stroke:rgb(0%,0%,100%);stroke-opacity:1;stroke-miterlimit:10;" d="M 140.355469 179.335938 L 125.117188 167.777344 "/>
<path style="fill:none;stroke-width:1.2;stroke-linecap:butt;stroke-linejoin:miter;stroke:rgb(0%,0%,0%);stroke-opacity:1;stroke-miterlimit:10;" d="M 125.117188 167.777344 L 109.882812 156.21875 "/>
<path style=" stroke:none;fill-rule:nonzero;fill:rgb(100%,100%,100%);fill-opacity:1;" d="M 134.355469 169.835938 L 146.355469 169.835938 L 146.355469 188.835938 L 134.355469 188.835938 Z M 134.355469 169.835938 "/>
<g style="fill:rgb(0%,0%,100%);fill-opacity:1;">
  <use xlink:href="#glyph0-1" x="134.355469" y="184.6875"/>
</g>
<path style="fill:none;stroke-width:1.2;stroke-linecap:butt;stroke-linejoin:miter;stroke:rgb(0%,0%,0%);stroke-opacity:1;stroke-miterlimit:10;" d="M 109.882812 156.21875 L 72.3125 163.394531 "/>
<path style="fill:none;stroke-width:1.2;stroke-linecap:butt;stroke-linejoin:miter;stroke:rgb(0%,0%,0%);stroke-opacity:1;stroke-miterlimit:10;" d="M 104.433594 148.09375 L 74.378906 153.835938 "/>
<path style="fill:none;stroke-width:1.2;stroke-linecap:butt;stroke-linejoin:miter;stroke:rgb(0%,0%,0%);stroke-opacity:1;stroke-miterlimit:10;" d="M 114.664062 118.265625 L 109.882812 156.21875 "/>
<path style="fill:none;stroke-width:1.2;stroke-linecap:butt;stroke-linejoin:miter;stroke:rgb(0%,0%,0%);stroke-opacity:1;stroke-miterlimit:10;" d="M 72.3125 163.394531 L 63.09375 146.636719 "/>
<path style="fill:none;stroke-width:1.2;stroke-linecap:butt;stroke-linejoin:miter;stroke:rgb(0%,0%,100%);stroke-opacity:1;stroke-miterlimit:10;" d="M 63.09375 146.636719 L 53.875 129.882812 "/>
<path style="fill:none;stroke-width:1.2;stroke-linecap:butt;stroke-linejoin:miter;stroke:rgb(0%,0%,0%);stroke-opacity:1;stroke-miterlimit:10;" d="M 72.3125 163.394531 L 64.171875 180.703125 "/>
<path style="fill:none;stroke-width:1.2;stroke-linecap:butt;stroke-linejoin:miter;stroke:rgb(0%,0%,100%);stroke-opacity:1;stroke-miterlimit:10;" d="M 64.171875 180.703125 L 56.035156 198.007812 "/>
<path style="fill:none;stroke-width:1.2;stroke-linecap:butt;stroke-linejoin:miter;stroke:rgb(0%,0%,100%);stroke-opacity:1;stroke-miterlimit:10;" d="M 53.875 129.882812 L 80.050781 101.992188 "/>
<path style=" stroke:none;fill-rule:nonzero;fill:rgb(100%,100%,100%);fill-opacity:1;" d="M 41.875 120.382812 L 65.875 120.382812 L 65.875 139.382812 L 41.875 139.382812 Z M 41.875 120.382812 "/>
<g style="fill:rgb(0%,0%,100%);fill-opacity:1;">
  <use xlink:href="#glyph0-1" x="41.875" y="135.234375"/>
  <use xlink:href="#glyph0-2" x="53.84375" y="135.234375"/>
</g>
<path style="fill:none;stroke-width:1.2;stroke-linecap:butt;stroke-linejoin:miter;stroke:rgb(0%,0%,100%);stroke-opacity:1;stroke-miterlimit:10;" d="M 80.050781 101.992188 L 97.355469 110.128906 "/>
<path style="fill:none;stroke-width:1.2;stroke-linecap:butt;stroke-linejoin:miter;stroke:rgb(0%,0%,0%);stroke-opacity:1;stroke-miterlimit:10;" d="M 97.355469 110.128906 L 114.664062 118.265625 "/>
<path style="fill:none;stroke-width:1.2;stroke-linecap:butt;stroke-linejoin:miter;stroke:rgb(0%,0%,100%);stroke-opacity:1;stroke-miterlimit:10;" d="M 79.683594 111.761719 L 93.527344 118.273438 "/>
<path style="fill:none;stroke-width:1.2;stroke-linecap:butt;stroke-linejoin:miter;stroke:rgb(0%,0%,0%);stroke-opacity:1;stroke-miterlimit:10;" d="M 93.527344 118.273438 L 107.375 124.785156 "/>
<path style=" stroke:none;fill-rule:nonzero;fill:rgb(100%,100%,100%);fill-opacity:1;" d="M 74.050781 92.492188 L 86.050781 92.492188 L 86.050781 111.492188 L 74.050781 111.492188 Z M 74.050781 92.492188 "/>
<g style="fill:rgb(0%,0%,100%);fill-opacity:1;">
  <use xlink:href="#glyph0-1" x="74.050781" y="107.34375"/>
</g>
<path style="fill:none;stroke-width:1.2;stroke-linecap:butt;stroke-linejoin:miter;stroke:rgb(0%,0%,0%);stroke-opacity:1;stroke-miterlimit:10;" d="M 114.664062 118.265625 L 132.292969 110.851562 "/>
<path style="fill:none;stroke-width:1.2;stroke-linecap:butt;stroke-linejoin:miter;stroke:rgb(0%,0%,100%);stroke-opacity:1;stroke-miterlimit:10;" d="M 132.292969 110.851562 L 149.921875 103.433594 "/>
<path style="fill:none;stroke-width:1.2;stroke-linecap:butt;stroke-linejoin:miter;stroke:rgb(0%,0%,100%);stroke-opacity:1;stroke-miterlimit:10;" d="M 149.921875 103.433594 L 165.15625 114.992188 "/>
<path style="fill:none;stroke-width:1.2;stroke-linecap:butt;stroke-linejoin:miter;stroke:rgb(0%,0%,0%);stroke-opacity:1;stroke-miterlimit:10;" d="M 165.15625 114.992188 L 180.394531 126.550781 "/>
<path style="fill:none;stroke-width:1.2;stroke-linecap:butt;stroke-linejoin:miter;stroke:rgb(0%,0%,100%);stroke-opacity:1;stroke-miterlimit:10;" d="M 147.53125 112.917969 L 159.71875 122.164062 "/>
<path style="fill:none;stroke-width:1.2;stroke-linecap:butt;stroke-linejoin:miter;stroke:rgb(0%,0%,0%);stroke-opacity:1;stroke-miterlimit:10;" d="M 159.71875 122.164062 L 171.910156 131.410156 "/>
<path style=" stroke:none;fill-rule:nonzero;fill:rgb(100%,100%,100%);fill-opacity:1;" d="M 143.921875 93.933594 L 155.921875 93.933594 L 155.921875 112.933594 L 143.921875 112.933594 Z M 143.921875 93.933594 "/>
<g style="fill:rgb(0%,0%,100%);fill-opacity:1;">
  <use xlink:href="#glyph0-1" x="143.921875" y="108.785156"/>
</g>
<path style="fill:none;stroke-width:1.2;stroke-linecap:butt;stroke-linejoin:miter;stroke:rgb(0%,0%,0%);stroke-opacity:1;stroke-miterlimit:10;" d="M 180.394531 126.550781 L 215.652344 111.71875 "/>
<path style="fill:none;stroke-width:1.2;stroke-linecap:butt;stroke-linejoin:miter;stroke:rgb(0%,0%,0%);stroke-opacity:1;stroke-miterlimit:10;" d="M 215.652344 111.71875 L 246.125 134.835938 "/>
<path style="fill:none;stroke-width:1.2;stroke-linecap:butt;stroke-linejoin:miter;stroke:rgb(0%,0%,0%);stroke-opacity:1;stroke-miterlimit:10;" d="M 213.261719 121.203125 L 237.640625 139.695312 "/>
<path style=" stroke:none;fill-rule:nonzero;fill:rgb(100%,100%,100%);fill-opacity:1;" d="M 23.035156 186.507812 L 56.035156 186.507812 L 56.035156 209.507812 L 23.035156 209.507812 Z M 23.035156 186.507812 "/>
<g style="fill:rgb(0%,0%,100%);fill-opacity:1;">
  <use xlink:href="#glyph0-2" x="23.035156" y="201.359375"/>
</g>
<g style="fill:rgb(0%,0%,100%);fill-opacity:1;">
  <use xlink:href="#glyph1-1" x="35.066406" y="206.242188"/>
</g>
<g style="fill:rgb(0%,0%,100%);fill-opacity:1;">
  <use xlink:href="#glyph0-1" x="43.545898" y="201.359375"/>
</g>
</g>
</svg>

<svg xmlns="http://www.w3.org/2000/svg" xmlns:xlink="http://www.w3.org/1999/xlink" width="300pt" height="300pt" viewBox="0 0 300 300"><defs><symbol overflow="visible"><path d="M.797 2.828v-14.11h8V2.83zm.906-.89h6.203v-12.33H1.703zm0 0"/></symbol><symbol overflow="visible" id="a"><path d="M1.578-11.672h2.125l5.172 9.766v-9.766h1.53V0H8.282L3.11-9.766V0H1.577zm0 0"/></symbol><symbol overflow="visible" id="b"><path d="M1.578-11.672h1.578v4.78H8.89v-4.78h1.58V0H8.89v-5.563H3.157V0H1.578zm0 0"/></symbol><symbol overflow="visible"><path d="M.64 2.297v-11.47h6.5v11.47zm.735-.72h5.047V-8.436H1.375zm0 0"/></symbol><symbol overflow="visible" id="c"><path d="M2.5-1.078h4.47V0H.952v-1.078c.488-.5 1.15-1.172 1.985-2.016C3.78-3.944 4.312-4.5 4.53-4.75c.407-.457.69-.848.845-1.172.164-.32.25-.633.25-.937 0-.507-.18-.92-.53-1.234-.345-.312-.806-.47-1.376-.47-.408.002-.837.072-1.283.205-.437.137-.914.352-1.42.64v-1.296c.518-.207 1.003-.363 1.452-.468.444-.114.85-.172 1.217-.172.99 0 1.774.25 2.36.75.582.492.875 1.148.875 1.97 0 .385-.074.756-.22 1.108-.147.344-.413.75-.796 1.22-.105.124-.445.483-1.015 1.077-.562.585-1.36 1.4-2.39 2.452zm0 0"/></symbol></defs><g><path fill="#fff" d="M0 0h300v300H0z"/><path d="M241.344 172.785l-35.258 14.832M234.328 165.973L206.12 177.84M246.125 134.836l-4.78 37.95M206.086 187.617L175.613 164.5M175.613 164.5l-17.63 7.418" stroke-width="1.2" stroke="#000" stroke-miterlimit="10" fill="none"/><path d="M157.984 171.918l-17.63 7.418" stroke-width="1.2" stroke="#00f" stroke-miterlimit="10" fill="none"/><path d="M168.598 157.688l-14.106 5.933" stroke-width="1.2" stroke="#000" stroke-miterlimit="10" fill="none"/><path d="M154.492 163.62l-14.1 5.935" stroke-width="1.2" stroke="#00f" stroke-miterlimit="10" fill="none"/><path d="M180.395 126.55l-4.782 37.95" stroke-width="1.2" stroke="#000" stroke-miterlimit="10" fill="none"/><path d="M140.355 179.336l-15.238-11.56" stroke-width="1.2" stroke="#00f" stroke-miterlimit="10" fill="none"/><path d="M125.117 167.777l-15.234-11.558" stroke-width="1.2" stroke="#000" stroke-miterlimit="10" fill="none"/><path d="M134.355 169.836h12v19h-12zm0 0" fill="#fff"/><use xlink:href="#a" x="134.355" y="184.688" fill="#00f"/><path d="M109.883 156.22l-37.57 7.175M104.434 148.094l-30.055 5.742M114.664 118.266l-4.78 37.953M72.313 163.395l-9.22-16.758" stroke-width="1.2" stroke="#000" stroke-miterlimit="10" fill="none"/><path d="M63.094 146.637l-9.22-16.754" stroke-width="1.2" stroke="#00f" stroke-miterlimit="10" fill="none"/><path d="M72.313 163.395l-8.14 17.308" stroke-width="1.2" stroke="#000" stroke-miterlimit="10" fill="none"/><path d="M64.172 180.703l-8.137 17.305M53.875 129.883l26.176-27.89" stroke-width="1.2" stroke="#00f" stroke-miterlimit="10" fill="none"/><path d="M41.875 120.383h24v19h-24zm0 0" fill="#fff"/><g fill="#00f"><use xlink:href="#a" x="41.875" y="135.234"/><use xlink:href="#b" x="53.844" y="135.234"/></g><path d="M80.05 101.992l17.305 8.137" stroke-width="1.2" stroke="#00f" stroke-miterlimit="10" fill="none"/><path d="M97.355 110.13l17.31 8.136" stroke-width="1.2" stroke="#000" stroke-miterlimit="10" fill="none"/><path d="M79.684 111.762l13.843 6.51" stroke-width="1.2" stroke="#00f" stroke-miterlimit="10" fill="none"/><path d="M93.527 118.273l13.848 6.512" stroke-width="1.2" stroke="#000" stroke-miterlimit="10" fill="none"/><path d="M74.05 92.492h12v19h-12zm0 0" fill="#fff"/><use xlink:href="#a" x="74.051" y="107.344" fill="#00f"/><path d="M114.664 118.266l17.63-7.414" stroke-width="1.2" stroke="#000" stroke-miterlimit="10" fill="none"/><path d="M132.293 110.852l17.63-7.418M149.922 103.434l15.234 11.558" stroke-width="1.2" stroke="#00f" stroke-miterlimit="10" fill="none"/><path d="M165.156 114.992l15.24 11.56" stroke-width="1.2" stroke="#000" stroke-miterlimit="10" fill="none"/><path d="M147.53 112.918l12.19 9.246" stroke-width="1.2" stroke="#00f" stroke-miterlimit="10" fill="none"/><path d="M159.72 122.164l12.19 9.246" stroke-width="1.2" stroke="#000" stroke-miterlimit="10" fill="none"/><path d="M143.922 93.934h12v19h-12zm0 0" fill="#fff"/><use xlink:href="#a" x="143.922" y="108.785" fill="#00f"/><path d="M180.395 126.55l35.257-14.83M215.652 111.72l30.473 23.116M213.262 121.203l24.38 18.492" stroke-width="1.2" stroke="#000" stroke-miterlimit="10" fill="none"/><path d="M23.035 186.508h33v23h-33zm0 0" fill="#fff"/><use xlink:href="#b" x="23.035" y="201.359" fill="#00f"/><use xlink:href="#c" x="35.066" y="206.242" fill="#00f"/><use xlink:href="#a" x="43.546" y="201.359" fill="#00f"/></g></svg>
